symbols/web/video_stable/materialsymbolsrounded/video_stable_wght500gradN25_24px.svg

<svg xmlns="http://www.w3.org/2000/svg" height="24" width="24"><path d="M15.8 17.55q.425.1.813-.112.387-.213.487-.638l1.7-6.35q.125-.425-.088-.8-.212-.375-.662-.5l-9.825-2.7q-.425-.1-.8.112-.375.213-.5.638L5.25 13.55q-.125.425.088.8.212.375.662.5Zm-.35-2.125L7.375 13.2 8.6 8.575l8.075 2.225ZM4.2 19.975q-.9 0-1.525-.625-.625-.625-.625-1.525V6.175q0-.9.625-1.525.625-.625 1.525-.625h15.6q.9 0 1.525.625.625.625.625 1.525v11.65q0 .9-.625 1.525-.625.625-1.525.625Zm0-2.15V6.175v11.65Zm0 0h15.6V6.175H4.2v11.65Z"/></svg>

<svg xmlns="http://www.w3.org/2000/svg" height="24" width="24"><path d="M15.8 17.55Q16.225 17.65 16.613 17.438Q17 17.225 17.1 16.8L18.8 10.45Q18.925 10.025 18.712 9.65Q18.5 9.275 18.05 9.15L8.225 6.45Q7.8 6.35 7.425 6.562Q7.05 6.775 6.925 7.2L5.25 13.55Q5.125 13.975 5.338 14.35Q5.55 14.725 6 14.85ZM15.45 15.425 7.375 13.2 8.6 8.575 16.675 10.8ZM4.2 19.975Q3.3 19.975 2.675 19.35Q2.05 18.725 2.05 17.825V6.175Q2.05 5.275 2.675 4.65Q3.3 4.025 4.2 4.025H19.8Q20.7 4.025 21.325 4.65Q21.95 5.275 21.95 6.175V17.825Q21.95 18.725 21.325 19.35Q20.7 19.975 19.8 19.975ZM4.2 17.825Q4.2 17.825 4.2 17.825Q4.2 17.825 4.2 17.825V6.175Q4.2 6.175 4.2 6.175Q4.2 6.175 4.2 6.175Q4.2 6.175 4.2 6.175Q4.2 6.175 4.2 6.175V17.825Q4.2 17.825 4.2 17.825Q4.2 17.825 4.2 17.825ZM4.2 17.825H19.8Q19.8 17.825 19.8 17.825Q19.8 17.825 19.8 17.825V6.175Q19.8 6.175 19.8 6.175Q19.8 6.175 19.8 6.175H4.2Q4.2 6.175 4.2 6.175Q4.2 6.175 4.2 6.175V17.825Q4.2 17.825 4.2 17.825Q4.2 17.825 4.2 17.825Z"/></svg>
